Gurmukhi/0A03.svg

<svg enable-background="new 0 0 336 592" viewBox="0 0 336 592" xmlns="http://www.w3.org/2000/svg"><path d="m297.114563 327.963531c10.925476 15.578888 11.026428 32.739869.135468 44.841492-7.986237 8.874054-18.516999 11.012116-29.963471 10.521118-17.621658-.75592-34.216736-14.110168-37.978119-30.782379-4.290375-19.016937 8.579697-37.26596 27.997284-39.883941 15.953827-2.150971 29.054169 2.999084 39.808838 15.30371m-25.200806 1.384797c-2.495453-.010682-5.012664-.240021-7.482635.005584-10.996124 1.093354-19.617813 11.962769-17.602722 22.036744 2.00888 10.042938 9.744201 16.375457 19.805481 16.213867 11.02185-.177063 19.494598-7.640259 20.901153-18.410736 1.13089-8.659912-4.741272-16.507721-15.621277-19.845459z"/><path d="m295.598511 265.625366c-22.999756 18.785614-59.91066 6.129791-66.408188-22.43811-4.26593-18.756165 10.00354-37.580277 29.134659-39.663483 23.355377-2.543197 43.408661 13.144898 46.458465 33.002793 1.706208 11.109375-.977539 20.77391-9.184936 29.0988m-44.915085-37.363189c-2.955719 4.20317-4.678787 8.790237-3.904984 13.992507 1.195176 8.035233 5.709626 13.238175 13.596833 15.419877 8.434143 2.332977 16.003723.509918 21.91806-5.79271 10.277405-10.952087 4.956329-28.299499-9.55072-31.210602-8.290161-1.663559-15.871613.164017-22.059189 7.590928z"/><path d="m190.593842 288.081329c3.815216 2.777314 4.906875 6.180603 3.578323 10.252472-1.087692 3.33371-3.669785 5.042939-7.02153 5.481751-3.450455.451751-6.140534-1.074036-8.023468-3.880799-2.197068-3.275085-1.986786-6.69696.448089-9.664093 2.829636-3.448181 6.506684-4.325561 11.018586-2.189331z"/><path d="m52.854019 313.804443c6.308075-2.703125 11.363022-1.02716 13.098122 4.009125 1.627563 4.724152-1.395821 10.004028-6.437592 11.096436-3.913425.8479-7.082264-.649628-8.821174-4.057556-1.958893-3.839051-1.811013-7.731354 2.160644-11.048005z"/><path d="m124.147217 369.2771c-6.562103 2.546478-11.044136.866882-12.883759-4.505433-1.475738-4.309661 1.198166-9.318908 5.786637-10.608673 4.053863-1.139495 7.351814.343628 9.460914 3.762574 2.556893 4.144806 1.465279 7.947418-2.363792 11.351532z"/><path d="m136.471863 359.254578c-.87883-4.84314.567154-8.48407 4.835602-10.087983 3.589584-1.348785 7.22792-.846466 9.889953 2.560944 2.626923 3.362518 2.419678 6.738892.194443 10.151856-3.164627 4.853759-12.511353 5.059967-14.919998-2.624817z"/><path d="m175.284546 342.943054c-1.705643 6.487213-5.810166 9.443726-10.696228 8.105225-4.512955-1.236298-7.112442-5.837891-5.877319-10.579987 1.075042-4.12738 3.905685-5.989959 8.090774-5.942383 4.736252.053833 7.238358 2.416077 8.482773 8.417145z"/><path d="m181.780914 329.091431c-4.499954.02658-7.624618-1.817353-8.790207-5.708435-.972549-3.246643-.714721-6.672852 2.278138-9.122803 2.821853-2.309937 6.020767-2.883881 9.296157-1.226471 3.221436 1.630096 4.991669 4.36853 4.705109 8.094482-.338089 4.396393-2.957245 6.853363-7.489197 7.963227z"/><path d="m45.912865 290.01532c3.582828-3.230591 7.294876-4.295838 11.192695-1.705231 2.961758 1.968506 4.475422 4.895599 3.623829 8.616333-.816345 3.566681-2.923538 5.859314-6.57864 6.716797-3.294178.772797-5.916549-.307617-8.03408-2.739258-2.936375-3.371948-2.724251-6.950226-.203804-10.888641z"/><path d="m136.021591 233.981171c.656922-4.04097 2.180954-7.093109 6.055206-8.150177 4.756684-1.297852 9.261231 1.234558 10.659745 5.81575 1.225464 4.014328-1.064423 8.533798-5.122025 10.109161-4.285019 1.663651-8.70375-.149582-10.799652-4.515854-.422729-.880676-.537643-1.909118-.793274-3.25888z"/><path d="m170.189026 255.729919c-6.784607 1.066437-10.658997-1.024017-11.582565-5.870163-.82811-4.34523 1.245224-8.348617 5.051483-9.753921 4.147979-1.531479 8.60321.132858 10.703918 3.998627 2.18956 4.029327.882492 7.966461-4.172836 11.625457z"/><path d="m111.451172 225.804581c2.130669-4.783646 5.517921-6.608261 10.20475-5.395203 4.051529 1.048645 6.191353 4.075851 6.127037 8.097-.067574 4.224091-2.383499 7.171601-6.672226 8.23996-5.975563 1.488571-10.786972-3.705307-9.659561-10.941757z"/><path d="m177.091293 262.736816c5.881882-1.666809 10.217148.122925 11.825394 4.562531 1.344635 3.711883-.424423 8.303772-3.961227 10.282135-3.732377 2.087707-8.601365.937042-11.014634-2.603058-2.64357-3.87796-1.575256-8.52417 3.150467-12.241608z"/><path d="m70.304642 239.753662c6.891342.184876 10.260338 3.256531 9.979393 8.671799-.259278 4.997543-4.334297 8.427627-9.471138 7.854782-3.95031-.440506-6.388932-2.844193-7.000542-6.625702-.783611-4.845016 1.000061-8.450592 6.492287-9.900879z"/><path d="m73.570496 351.102051c-6.977784-.095764-10.382714-3.424896-9.86876-9.179047.448777-5.024444 4.552407-8.076446 9.872178-7.264068 3.70288.565429 6.082977 2.801055 6.611335 6.436462.711823 4.897675-1.365326 8.356964-6.614753 10.006653z"/><path d="m64.839348 265.467407c2.498573 4.378876 1.812797 8.008576-1.52116 11.081879-2.759873 2.544098-6.092961 2.657806-9.263466 1.097198-3.712681-1.827453-4.934704-5.160461-4.333141-9.174652.494747-3.301422 2.538494-5.378662 5.589374-6.341308 3.725575-1.175507 6.828827.044433 9.528393 3.336883z"/><path d="m86.041992 359.368835c-.386864-5.928222 1.667992-9.480682 5.725838-10.520507 4.089012-1.047791 8.538864.8927 10.090248 4.400238 1.686539 3.813018.150955 8.698761-3.424568 10.896087-3.719719 2.285889-8.116188 1.404145-10.999275-2.252807-.506371-.642273-.84356-1.418-1.392243-2.523011z"/><path d="m100.547501 239.356354c-3.038453 3.039169-6.309533 3.814575-9.836029 2.25682-2.900612-1.281295-4.664483-3.718154-4.960701-6.937423-.35788-3.889374 1.270271-6.947983 4.865348-8.393967 3.410279-1.371658 6.97461-1.147247 9.620888 1.799484 3.049278 3.395523 2.920197 7.174164.310494 11.275086z"/></svg>

<svg version="1.1" id="Layer_1" xmlns="http://www.w3.org/2000/svg" xmlns:xlink="http://www.w3.org/1999/xlink" x="0px" y="0px"
	 width="100%" viewBox="0 0 336 592" enable-background="new 0 0 336 592" xml:space="preserve">
<path fill="#000000" opacity="1.000000" stroke="none" 
	d="
M297.114563,327.963531 
	C308.040039,343.542419 308.140991,360.703400 297.250031,372.805023 
	C289.263794,381.679077 278.733032,383.817139 267.286560,383.326141 
	C249.664902,382.570221 233.069824,369.215973 229.308441,352.543762 
	C225.018066,333.526825 237.888138,315.277802 257.305725,312.659821 
	C273.259552,310.508850 286.359894,315.658905 297.114563,327.963531 
M271.913757,329.348328 
	C269.418304,329.337646 266.901093,329.108307 264.431122,329.353912 
	C253.434998,330.447266 244.813309,341.316681 246.828400,351.390656 
	C248.837280,361.433594 256.572601,367.766113 266.633881,367.604523 
	C277.655731,367.427460 286.128479,359.964264 287.535034,349.193787 
	C288.665924,340.533875 282.793762,332.686066 271.913757,329.348328 
z"/>
<path fill="#000000" opacity="1.000000" stroke="none" 
	d="
M295.598511,265.625366 
	C272.598755,284.410980 235.687851,271.755157 229.190323,243.187256 
	C224.924393,224.431091 239.193863,205.606979 258.324982,203.523773 
	C281.680359,200.980576 301.733643,216.668671 304.783447,236.526566 
	C306.489655,247.635941 303.805908,257.300476 295.598511,265.625366 
M250.683426,228.262177 
	C247.727707,232.465347 246.004639,237.052414 246.778442,242.254684 
	C247.973618,250.289917 252.488068,255.492859 260.375275,257.674561 
	C268.809418,260.007538 276.378998,258.184479 282.293335,251.881851 
	C292.570740,240.929764 287.249664,223.582352 272.742615,220.671249 
	C264.452454,219.007690 256.871002,220.835266 250.683426,228.262177 
z"/>
<path fill="#000000" opacity="1.000000" stroke="none" 
	d="
M190.593842,288.081329 
	C194.409058,290.858643 195.500717,294.261932 194.172165,298.333801 
	C193.084473,301.667511 190.502380,303.376740 187.150635,303.815552 
	C183.700180,304.267303 181.010101,302.741516 179.127167,299.934753 
	C176.930099,296.659668 177.140381,293.237793 179.575256,290.270660 
	C182.404892,286.822479 186.081940,285.945099 190.593842,288.081329 
z"/>
<path fill="#000000" opacity="1.000000" stroke="none" 
	d="
M52.854019,313.804443 
	C59.162094,311.101318 64.217041,312.777283 65.952141,317.813568 
	C67.579704,322.537720 64.556320,327.817596 59.514549,328.910004 
	C55.601124,329.757904 52.432285,328.260376 50.693375,324.852448 
	C48.734482,321.013397 48.882362,317.121094 52.854019,313.804443 
z"/>
<path fill="#000000" opacity="1.000000" stroke="none" 
	d="
M124.147217,369.277100 
	C117.585114,371.823578 113.103081,370.143982 111.263458,364.771667 
	C109.787720,360.462006 112.461624,355.452759 117.050095,354.162994 
	C121.103958,353.023499 124.401909,354.506622 126.511009,357.925568 
	C129.067902,362.070374 127.976288,365.872986 124.147217,369.277100 
z"/>
<path fill="#000000" opacity="1.000000" stroke="none" 
	d="
M136.471863,359.254578 
	C135.593033,354.411438 137.039017,350.770508 141.307465,349.166595 
	C144.897049,347.817810 148.535385,348.320129 151.197418,351.727539 
	C153.824341,355.090057 153.617096,358.466431 151.391861,361.879395 
	C148.227234,366.733154 138.880508,366.939362 136.471863,359.254578 
z"/>
<path fill="#000000" opacity="1.000000" stroke="none" 
	d="
M175.284546,342.943054 
	C173.578903,349.430267 169.474380,352.386780 164.588318,351.048279 
	C160.075363,349.811981 157.475876,345.210388 158.710999,340.468292 
	C159.786041,336.340912 162.616684,334.478333 166.801773,334.525909 
	C171.538025,334.579742 174.040131,336.941986 175.284546,342.943054 
z"/>
<path fill="#000000" opacity="1.000000" stroke="none" 
	d="
M181.780914,329.091431 
	C177.280960,329.118011 174.156296,327.274078 172.990707,323.382996 
	C172.018158,320.136353 172.275986,316.710144 175.268845,314.260193 
	C178.090698,311.950256 181.289612,311.376312 184.565002,313.033722 
	C187.786438,314.663818 189.556671,317.402252 189.270111,321.128204 
	C188.932022,325.524597 186.312866,327.981567 181.780914,329.091431 
z"/>
<path fill="#000000" opacity="1.000000" stroke="none" 
	d="
M45.912865,290.015320 
	C49.495693,286.784729 53.207741,285.719482 57.105560,288.310089 
	C60.067318,290.278595 61.580982,293.205688 60.729389,296.926422 
	C59.913044,300.493103 57.805851,302.785736 54.150749,303.643219 
	C50.856571,304.416016 48.234200,303.335602 46.116669,300.903961 
	C43.180294,297.532013 43.392418,293.953735 45.912865,290.015320 
z"/>
<path fill="#000000" opacity="1.000000" stroke="none" 
	d="
M136.021591,233.981171 
	C136.678513,229.940201 138.202545,226.888062 142.076797,225.830994 
	C146.833481,224.533142 151.338028,227.065552 152.736542,231.646744 
	C153.962006,235.661072 151.672119,240.180542 147.614517,241.755905 
	C143.329498,243.419556 138.910767,241.606323 136.814865,237.240051 
	C136.392136,236.359375 136.277222,235.330933 136.021591,233.981171 
z"/>
<path fill="#000000" opacity="1.000000" stroke="none" 
	d="
M170.189026,255.729919 
	C163.404419,256.796356 159.530029,254.705902 158.606461,249.859756 
	C157.778351,245.514526 159.851685,241.511139 163.657944,240.105835 
	C167.805923,238.574356 172.261154,240.238693 174.361862,244.104462 
	C176.551422,248.133789 175.244354,252.070923 170.189026,255.729919 
z"/>
<path fill="#000000" opacity="1.000000" stroke="none" 
	d="
M111.451172,225.804581 
	C113.581841,221.020935 116.969093,219.196320 121.655922,220.409378 
	C125.707451,221.458023 127.847275,224.485229 127.782959,228.506378 
	C127.715385,232.730469 125.399460,235.677979 121.110733,236.746338 
	C115.135170,238.234909 110.323761,233.041031 111.451172,225.804581 
z"/>
<path fill="#000000" opacity="1.000000" stroke="none" 
	d="
M177.091293,262.736816 
	C182.973175,261.070007 187.308441,262.859741 188.916687,267.299347 
	C190.261322,271.011230 188.492264,275.603119 184.955460,277.581482 
	C181.223083,279.669189 176.354095,278.518524 173.940826,274.978424 
	C171.297256,271.100464 172.365570,266.454254 177.091293,262.736816 
z"/>
<path fill="#000000" opacity="1.000000" stroke="none" 
	d="
M70.304642,239.753662 
	C77.195984,239.938538 80.564980,243.010193 80.284035,248.425461 
	C80.024757,253.423004 75.949738,256.853088 70.812897,256.280243 
	C66.862587,255.839737 64.423965,253.436050 63.812355,249.654541 
	C63.028744,244.809525 64.812416,241.203949 70.304642,239.753662 
z"/>
<path fill="#000000" opacity="1.000000" stroke="none" 
	d="
M73.570496,351.102051 
	C66.592712,351.006287 63.187782,347.677155 63.701736,341.923004 
	C64.150513,336.898560 68.254143,333.846558 73.573914,334.658936 
	C77.276794,335.224365 79.656891,337.459991 80.185249,341.095398 
	C80.897072,345.993073 78.819923,349.452362 73.570496,351.102051 
z"/>
<path fill="#000000" opacity="1.000000" stroke="none" 
	d="
M64.839348,265.467407 
	C67.337921,269.846283 66.652145,273.475983 63.318188,276.549286 
	C60.558315,279.093384 57.225227,279.207092 54.054722,277.646484 
	C50.342041,275.819031 49.120018,272.486023 49.721581,268.471832 
	C50.216328,265.170410 52.260075,263.093170 55.310955,262.130524 
	C59.036530,260.955017 62.139782,262.174957 64.839348,265.467407 
z"/>
<path fill="#000000" opacity="1.000000" stroke="none" 
	d="
M86.041992,359.368835 
	C85.655128,353.440613 87.709984,349.888153 91.767830,348.848328 
	C95.856842,347.800537 100.306694,349.741028 101.858078,353.248566 
	C103.544617,357.061584 102.009033,361.947327 98.433510,364.144653 
	C94.713791,366.430542 90.317322,365.548798 87.434235,361.891846 
	C86.927864,361.249573 86.590675,360.473846 86.041992,359.368835 
z"/>
<path fill="#000000" opacity="1.000000" stroke="none" 
	d="
M100.547501,239.356354 
	C97.509048,242.395523 94.237968,243.170929 90.711472,241.613174 
	C87.810860,240.331879 86.046989,237.895020 85.750771,234.675751 
	C85.392891,230.786377 87.021042,227.727768 90.616119,226.281784 
	C94.026398,224.910126 97.590729,225.134537 100.237007,228.081268 
	C103.286285,231.476791 103.157204,235.255432 100.547501,239.356354 
z"/>
</svg>
